logo/speakerdeck.svg

<?xml version="1.0" encoding="UTF-8"?>
<svg width="256px" height="160px" viewBox="0 0 256 160" version="1.1" xmlns="http://www.w3.org/2000/svg" xmlns:xlink="http://www.w3.org/1999/xlink" preserveAspectRatio="xMidYMid">
    <g>
        <path d="M106.932331,100 L50,100 C22.3857624,100 0,77.6142376 0,50 C0,22.3857624 22.3857624,0 50,0 L116.421053,0 C127.466748,0 136.421053,8.9543048 136.421053,20 C136.421053,31.0456952 127.466748,40 116.421053,40 L48.977444,40 C43.454596,40 38.977444,44.4771528 38.977444,50 C38.977444,55.5228472 43.454596,60 48.977444,60 L105.909774,60 C133.524012,60 155.909774,82.3857624 155.909774,110 C155.909774,137.614238 133.524012,160 105.909774,160 L20,160 C8.9543048,160 0,151.045695 0,140 C0,128.954305 8.9543048,120 20,120 L106.932331,120 C112.455178,120 116.932331,115.522847 116.932331,110 C116.932331,104.477153 112.455178,100 106.932331,100 Z M149.013633,160 C162.31303,151.005667 171.818454,136.66797 174.567639,120 L206.843433,120 C212.273117,120 216.674746,115.522847 216.674746,110 L216.674746,50 C216.674746,44.4771528 212.273117,40 206.843433,40 L148.210526,40 C152.880793,34.6924352 155.720602,27.683544 155.720602,20 C155.720602,12.316456 152.880793,5.3075648 148.210526,0 L216.674746,0 C238.393484,0 256,17.9086104 256,40 L256,120 C256,142.09139 238.393484,160 216.674746,160 L149.013633,160 Z" fill="#009287"></path>
    </g>
</svg>

<svg viewBox="0 0 256 160" xmlns="http://www.w3.org/2000/svg"><path fill="#009287" d="M106.93 100H49.99c-27.62 0-50-22.39-50-50 0-27.62 22.38-50 50-50h66.42c11.04 0 20 8.95 20 20 0 11.04-8.96 20-20 20H48.96c-5.53 0-10 4.47-10 10 0 5.52 4.47 10 10 10h56.93c27.61 0 50 22.38 50 50 0 27.61-22.39 50-50 50H19.98c-11.05 0-20-8.96-20-20 0-11.05 8.95-20 20-20h86.93c5.52 0 10-4.48 10-10 0-5.53-4.48-10-10-10Zm42.08 60c13.29-9 22.8-23.34 25.55-40h32.27c5.42 0 9.83-4.48 9.83-10V50c0-5.53-4.41-10-9.84-10h-58.64c4.67-5.31 7.51-12.32 7.51-20 0-7.69-2.84-14.7-7.52-20h68.46c21.71 0 39.32 17.9 39.32 40v80c0 22.09-17.61 40-39.33 40h-67.67Z"/></svg>
